X: 1
T: Denis O'Keeffe's
R: polka
M: 2/4
L: 1/8
K: Dmaj
A,D FA|GC C>B,|A,D FA|GE E2|A,D FA|GC C2|FE/F/ GC|ED D>B,|
A,D FA|GC C>B,|A,D FA|GE E2|A,D FA|BE EB|AG/F/ GC|ED D2|
D/E/F/A/ dc/d/|cB c2|E/F/G/A/ cB/c/|BA F/G/A/F/|
D/E/F/A/ dc/d/|cB cB|AG/F/ GC|ED D2:|

